X: 3254
T: Behind The Ditch In Pairc Anna
R: hornpipe
M: 4/4
K: Adorian
|:E>A A>B c2d2|(3efg ed B>cd2|e>A A2 B>A G>B|A>G E>A (3GFE D2|
E>A A>B c2d2|(3efg ed B>cd2|e>A A.A B>A G>E|A2 A2 A4:|
|:e ~a3 e2d2|e ~a3 e2d2|e>A A2 B>A G>B|A>G E>A (3GFE D2|
E>A A>B c2d2|(3efg ed B>cd2|e>A A.A B>A G>E|A2 A2 A4:|

